source/svgs/bowtie/uEA8D-script.svg

<svg xmlns="http://www.w3.org/2000/svg" viewBox="0 0 448 448" enable-background="new 0 0 448 448"><path d="M384 0h-256c-35.297 0-64 28.703-64 64v256c-17.094 0-33.156 6.656-45.25 18.749-12.094 12.096-18.75 28.157-18.75 45.251s6.656 33.155 18.75 45.251c12.094 12.093 28.156 18.749 45.25 18.749h224c35.296 0 64-28.72 64-64v-256h32c35.296 0 64-28.703 64-64s-28.704-64-64-64zm-320 416c-8.547 0-16.578-3.344-22.625-9.376-6.047-6.061-9.375-14.093-9.375-22.624s3.328-16.563 9.375-22.624c6.047-6.032 14.078-9.376 22.625-9.376h168.547c-5.578 9.626-8.547 20.595-8.547 32 0 11.466 3.234 22.349 8.855 32h-168.855zm256-352v320c0 17.658-14.358 32-32 32-8.547 0-16.578-3.344-22.625-9.376-6.047-6.061-9.375-14.093-9.375-22.624s3.328-16.563 9.375-22.624c6.047-6.032 14.078-9.376 22.625-9.376 8.845 0 16-7.155 16-16s-7.155-16-16-16h-192v-256c0-17.641 14.359-32 32-32h200.899c-5.51 9.451-8.899 20.291-8.899 32zm64 32h-32v-32c0-17.641 14.358-32 32-32s32 14.359 32 32-14.358 32-32 32z"/></svg>

<svg xmlns="http://www.w3.org/2000/svg" viewBox="0 0 448 448"><path d="M384 0H128C92.703 0 64 28.703 64 64v256c-17.094 0-33.156 6.656-45.25 18.749C6.656 350.845 0 366.906 0 384s6.656 33.155 18.75 45.251C30.844 441.344 46.906 448 64 448h224c35.296 0 64-28.72 64-64V128h32c35.296 0 64-28.703 64-64S419.296 0 384 0zM64 416c-8.547 0-16.578-3.344-22.625-9.376C35.328 400.563 32 392.531 32 384s3.328-16.563 9.375-22.624C47.422 355.344 55.453 352 64 352h168.547c-5.578 9.626-8.547 20.595-8.547 32 0 11.466 3.234 22.349 8.855 32H64zM320 64v320c0 17.658-14.358 32-32 32-8.547 0-16.578-3.344-22.625-9.376C259.328 400.563 256 392.531 256 384s3.328-16.563 9.375-22.624C271.422 355.344 279.453 352 288 352c8.845 0 16-7.155 16-16s-7.155-16-16-16H96V64c0-17.641 14.359-32 32-32h200.899C323.389 41.451 320 52.291 320 64zm64 32h-32V64c0-17.641 14.358-32 32-32s32 14.359 32 32-14.358 32-32 32z"/></svg>
